X:316
T: Gongshe biandi haozhuangjia
N: C1814
O: China,Gansu zhangye
S: I, 119, 1)]
N: Han
R: Xiaodiao, Guadifeng]
M: 2/4
L: 1/8
K: F
ccAc | d2fd | c2c2 |
AccA | GAc2 | cAGF | G4 |
cAc2 | cAGF | D2FG | AG2A |
D2FG | AG2A | FGFD | C4

@@@ Tune index: 6871
